svg/white/adx.svg

<svg height="32" width="32" xmlns="http://www.w3.org/2000/svg"><path d="m16 32c-8.837 0-16-7.163-16-16s7.163-16 16-16 16 7.163 16 16-7.163 16-16 16zm-4.413-23.398-2.587 2.758 4.36 4.614-4.36 4.706 2.587 2.717 4.413-4.605 4.305 4.604 2.695-2.793-4.396-4.604 4.396-4.639-2.695-2.757-4.305 4.605zm.355-.376 2.126 2.265 1.914-2.114 1.914 2.114 2.126-2.265-4.04-4.226zm0 15.548 4.04 4.226 4.04-4.226-2.126-2.265-1.914 2.114-1.914-2.114z" fill="#fff" fill-rule="evenodd"/></svg>

<svg xmlns="http://www.w3.org/2000/svg" width="32" height="32"><path fill="#FFF" fill-rule="evenodd" d="M16 32C7.163 32 0 24.837 0 16S7.163 0 16 0s16 7.163 16 16-7.163 16-16 16zM11.587 8.602L9 11.36l4.36 4.614L9 20.68l2.587 2.717L16 18.792l4.305 4.604L23 20.603l-4.396-4.604L23 11.36l-2.695-2.757L16 13.208l-4.413-4.606zm.355-.376l2.126 2.265 1.914-2.114 1.914 2.114 2.126-2.265L15.982 4l-4.04 4.226zm0 15.548L15.982 28l4.04-4.226-2.126-2.265-1.914 2.114-1.914-2.114-2.126 2.265z"/></svg>
